src/Assets/Icons/HomeScreen/MainFooterComponent/linkedin.svg

<svg width="24" height="24" viewBox="0 0 24 24" fill="none" xmlns="http://www.w3.org/2000/svg">
<rect width="24" height="24" rx="12" fill="white"/>
<path d="M8.6276 7.33351C8.62743 7.68713 8.48678 8.0262 8.23661 8.27613C7.98643 8.52605 7.64723 8.66636 7.2936 8.66618C6.93998 8.666 6.60091 8.52536 6.35099 8.27518C6.10107 8.02501 5.96076 7.6858 5.96094 7.33218C5.96111 6.97856 6.10176 6.63949 6.35193 6.38956C6.60211 6.13964 6.94132 5.99934 7.29494 5.99951C7.64856 5.99969 7.98763 6.14033 8.23755 6.39051C8.48747 6.64068 8.62778 6.97989 8.6276 7.33351ZM8.6676 9.65351H6.00094V18.0002H8.6676V9.65351ZM12.8809 9.65351H10.2276V18.0002H12.8543V13.6202C12.8543 11.1802 16.0343 10.9535 16.0343 13.6202V18.0002H18.6676V12.7135C18.6676 8.60018 13.9609 8.75351 12.8543 10.7735L12.8809 9.65351Z" fill="black"/>
</svg>

<svg xmlns="http://www.w3.org/2000/svg" width="24" height="24" fill="none"><rect width="24" height="24" fill="#fff" rx="12"/><path fill="#000" d="M8.628 7.334a1.333 1.333 0 1 1-2.667-.002 1.333 1.333 0 0 1 2.667.002m.04 2.32H6V18h2.667zm4.213 0h-2.653V18h2.626v-4.38c0-2.44 3.18-2.666 3.18 0V18h2.634v-5.286c0-4.114-4.707-3.96-5.814-1.94z"/></svg>
